X:1
T:060 - Coroai (CORONATION)
T:Letra: Edward Perronet (1726-1792) (1,2 e 3 estr.) e John Rippon (1751-1836) (4 estr.)
T:Trad.: Justus Henry Nelson (1849-1931)
T:Música: Oliver Holden (1765-1844)
M:4/4
L:1/8
Q:1/4=115
K:G 
V:1
D2| "G"G2 G2 B2 B2| "D"A2 G2 A2 B2| "G"A2 G2 B2 "D7"A2| "G"G4z2 "(D)"A2| "G"B2 A2 G2 B2| "D7"(dc) (BA) "G"B2 "(D)"d2| "G"d4 "D/F#"d4| "Em"e4 ("A"d2 ^c2)| "D"d4z2 B2| "G"d2 B2 G2 B2| ("D7"AG) (AB) A2 G2| "G"d4 "C"c4| ("G/D"B3c "D7"A2) A2| "G"G4z2 |]
w: 1.~Sau-dai o no-me de Je-sus. Ar-can-jos, vos pros-trai. O Fi-lho do glo-rio_so_ Deus com gló-ria co-ro_ai. O Fi-lho do glo-rio_so_ Deus com gló-ria co__ro-ai.   
w: 2.~Ó es-co-lhi-da ge-ra-ção do bom, e-ter-no Pai, o gran-deau-tor da sal_va_ção com gló-ria co-ro_ai. O gran-deau-tor da sal_va_ção com gló-ria co__ro-ai.   
w: 3.~Ó per-do-a-dos por Je-sus, a-le-gres a-do-rai. O Deus de paz, o Deus_ de_ luz com gló-ria co-ro_ai. O Deus de paz, o Deus_ de_ luz com gló-ria co__ro-ai.   
w: 4.~Ó ra-ças, tri-bos e na-ções, ao Rei di-vi-nohon-rai. A quem que-brou os vis_ gri_lhões com gló-ria co-ro_ai. A quem que-brou os vis_ gri_lhões com gló-ria co__ro-ai.
W:  
W:  
W: 1. Saudai o nome de Jesus.
W: Arcanjos, vos prostrai.
W: O Filho do glorioso Deus
W: com glória coroai.
W: O Filho do glorioso Deus
W: com glória coroai.
W:  
W: 2. Ó escolhida geração
W: do bom, eterno Pai,
W: o grande autor da salvação
W: com glória coroai.
W: O grande autor da salvação
W: com glória coroai.
W:  
W:  
W:  
W: 3. Ó perdoados por Jesus,
W: alegres adorai.
W: O Deus de paz, o Deus de luz
W: com glória coroai.
W: O Deus de paz, o Deus de luz
W: com glória coroai.
W:  
W: 4. Ó raças, tribos e nações,
W: ao Rei divino honrai.
W: A quem quebrou os vis grilhões
W: com glória coroai.
W: A quem quebrou os vis grilhões
W: com glória coroai.





%wordsfont Times-Roman 13.0
%vocalfont Times-Roman 13.0
